X: 6
T: Tommy Peoples'
Z: Alex Navar
S: https://thesession.org/tunes/192#setting47010
R: reel
M: 4/4
L: 1/8
K: Bmin
~B3c dBAF|~B3c dfed|~B3c dedB|ABde fded|
~B3c dBAF|~B3c dfed|~B3c dedB|ABde fd(3e.d.c|
|:dfaf bfaf|dfaf ggfg|1 affe d2dB|ABde fdec:|2 gffe e2dB|ABde fde(3d.d||
A~B3 dBAF|A~B3 dfed|~B3c de(3B.c.B|ABde fded|
A~B3 dBAF|BFBc dfed|BFBc d2(3d.c.B|ABde fffe|
|:dfaf bfaf|dfaf ggfg|1 gffe dddB|ABde (3g.f.d (3e.d.c:|2 abge faed|ABde fded||
A~B3 dBAF|~B3c dfed|A~B3 de(3d.c.B|ABde fded|
A~B3 (3d.c.B AF|BFBc dfed|A~B3 d2(3B.c.d|ABde fffe|
|:dfaf bfaf|dfaf ggfg|1 gffe dddB|ABde (3g.f.d (3e.d.c:|2 abge fded|ABde fded||

